build/images/last-section/Vectorls-icon-7.svg

<svg width="88" height="41" viewBox="0 0 88 41" fill="none" xmlns="http://www.w3.org/2000/svg">
<path d="M28.0996 11.5348H18.4591V21.1287H28.0996V11.5348Z" stroke="#A15CE6" stroke-width="3" stroke-linecap="round" stroke-linejoin="round"/>
<path d="M48.1282 11.5348H38.4876V21.1287H48.1282V11.5348Z" stroke="#A15CE6" stroke-width="3" stroke-linecap="round" stroke-linejoin="round"/>
<path d="M68.4949 11.5348H58.8543V21.1287H68.4949V11.5348Z" stroke="#A15CE6" stroke-width="3" stroke-linecap="round" stroke-linejoin="round"/>
<path d="M58.8306 21.8431H49.1901V31.437H58.8306V21.8431Z" stroke="#A15CE6" stroke-width="3" stroke-linecap="round" stroke-linejoin="round"/>
<path d="M38.458 21.8431H28.8175V31.437H38.458V21.8431Z" stroke="#A15CE6" stroke-width="3" stroke-linecap="round" stroke-linejoin="round"/>
<path d="M16.2462 1.94678H71.7578C75.534 1.94678 79.1556 3.43962 81.8258 6.09691C84.496 8.7542 85.9961 12.3583 85.9961 16.1162V38.9468H1.99609V16.1221C1.99531 14.2599 2.36342 12.4158 3.07935 10.6952C3.79528 8.97462 4.845 7.41136 6.16848 6.09482C7.49197 4.77828 9.06326 3.73429 10.7925 3.02253C12.5217 2.31077 14.375 1.94523 16.2462 1.94678Z" stroke="#A15CE6" stroke-width="3" stroke-linecap="round" stroke-linejoin="round"/>
</svg>

<svg width="88" height="41" fill="none" xmlns="http://www.w3.org/2000/svg"><path d="M28.1 11.535h-9.64v9.594h9.64v-9.594zm20.028 0h-9.64v9.594h9.64v-9.594zm20.367 0h-9.64v9.594h9.64v-9.594zM58.83 21.843h-9.64v9.594h9.64v-9.594zm-20.372 0h-9.64v9.594h9.64v-9.594z" stroke="#A15CE6" stroke-width="3" stroke-linecap="round" stroke-linejoin="round"/><path d="M16.246 1.947h55.512c3.776 0 7.398 1.493 10.068 4.15a14.135 14.135 0 0 1 4.17 10.02v22.83h-84V16.122c0-1.862.367-3.706 1.083-5.427a14.165 14.165 0 0 1 3.09-4.6 14.243 14.243 0 0 1 4.624-3.072 14.298 14.298 0 0 1 5.453-1.076z" stroke="#A15CE6" stroke-width="3" stroke-linecap="round" stroke-linejoin="round"/></svg>
